images/443586.svg

<?xml version="1.0" encoding="UTF-8"?>
<svg xmlns="http://www.w3.org/2000/svg" xmlns:xlink="http://www.w3.org/1999/xlink" width="300pt" height="300pt" viewBox="0 0 300 300" version="1.1">
<defs>
<g>
<symbol overflow="visible" id="glyph0-0">
<path style="stroke:none;" d="M 0.796875 2.828125 L 0.796875 -11.28125 L 8.796875 -11.28125 L 8.796875 2.828125 Z M 1.703125 1.9375 L 7.90625 1.9375 L 7.90625 -10.390625 L 1.703125 -10.390625 Z M 1.703125 1.9375 "/>
</symbol>
<symbol overflow="visible" id="glyph0-1">
<path style="stroke:none;" d="M 6.3125 -10.59375 C 5.164062 -10.59375 4.253906 -10.164062 3.578125 -9.3125 C 2.898438 -8.457031 2.5625 -7.296875 2.5625 -5.828125 C 2.5625 -4.359375 2.898438 -3.195312 3.578125 -2.34375 C 4.253906 -1.488281 5.164062 -1.0625 6.3125 -1.0625 C 7.457031 -1.0625 8.363281 -1.488281 9.03125 -2.34375 C 9.695312 -3.195312 10.03125 -4.359375 10.03125 -5.828125 C 10.03125 -7.296875 9.695312 -8.457031 9.03125 -9.3125 C 8.363281 -10.164062 7.457031 -10.59375 6.3125 -10.59375 Z M 6.3125 -11.875 C 7.945312 -11.875 9.253906 -11.328125 10.234375 -10.234375 C 11.210938 -9.140625 11.703125 -7.671875 11.703125 -5.828125 C 11.703125 -3.984375 11.210938 -2.507812 10.234375 -1.40625 C 9.253906 -0.3125 7.945312 0.234375 6.3125 0.234375 C 4.664062 0.234375 3.351562 -0.3125 2.375 -1.40625 C 1.394531 -2.507812 0.90625 -3.984375 0.90625 -5.828125 C 0.90625 -7.671875 1.394531 -9.140625 2.375 -10.234375 C 3.351562 -11.328125 4.664062 -11.875 6.3125 -11.875 Z M 6.3125 -11.875 "/>
</symbol>
<symbol overflow="visible" id="glyph0-2">
<path style="stroke:none;" d="M 1.578125 -11.671875 L 3.15625 -11.671875 L 3.15625 -6.890625 L 8.890625 -6.890625 L 8.890625 -11.671875 L 10.46875 -11.671875 L 10.46875 0 L 8.890625 0 L 8.890625 -5.5625 L 3.15625 -5.5625 L 3.15625 0 L 1.578125 0 Z M 1.578125 -11.671875 "/>
</symbol>
<symbol overflow="visible" id="glyph0-3">
<path style="stroke:none;" d="M 1.578125 -11.671875 L 3.703125 -11.671875 L 8.875 -1.90625 L 8.875 -11.671875 L 10.40625 -11.671875 L 10.40625 0 L 8.28125 0 L 3.109375 -9.765625 L 3.109375 0 L 1.578125 0 Z M 1.578125 -11.671875 "/>
</symbol>
<symbol overflow="visible" id="glyph1-0">
<path style="stroke:none;" d="M 0.640625 2.296875 L 0.640625 -9.171875 L 7.140625 -9.171875 L 7.140625 2.296875 Z M 1.375 1.578125 L 6.421875 1.578125 L 6.421875 -8.4375 L 1.375 -8.4375 Z M 1.375 1.578125 "/>
</symbol>
<symbol overflow="visible" id="glyph1-1">
<path style="stroke:none;" d="M 2.5 -1.078125 L 6.96875 -1.078125 L 6.96875 0 L 0.953125 0 L 0.953125 -1.078125 C 1.441406 -1.578125 2.101562 -2.25 2.9375 -3.09375 C 3.78125 -3.945312 4.3125 -4.5 4.53125 -4.75 C 4.9375 -5.207031 5.21875 -5.597656 5.375 -5.921875 C 5.539062 -6.242188 5.625 -6.554688 5.625 -6.859375 C 5.625 -7.367188 5.445312 -7.78125 5.09375 -8.09375 C 4.75 -8.40625 4.289062 -8.5625 3.71875 -8.5625 C 3.3125 -8.5625 2.882812 -8.492188 2.4375 -8.359375 C 2 -8.222656 1.523438 -8.007812 1.015625 -7.71875 L 1.015625 -9.015625 C 1.535156 -9.222656 2.019531 -9.378906 2.46875 -9.484375 C 2.914062 -9.597656 3.320312 -9.65625 3.6875 -9.65625 C 4.675781 -9.65625 5.460938 -9.40625 6.046875 -8.90625 C 6.628906 -8.414062 6.921875 -7.757812 6.921875 -6.9375 C 6.921875 -6.550781 6.847656 -6.179688 6.703125 -5.828125 C 6.554688 -5.484375 6.289062 -5.078125 5.90625 -4.609375 C 5.800781 -4.484375 5.460938 -4.125 4.890625 -3.53125 C 4.328125 -2.945312 3.53125 -2.128906 2.5 -1.078125 Z M 2.5 -1.078125 "/>
</symbol>
</g>
</defs>
<g id="surface35805">
<rect x="0" y="0" width="300" height="300" style="fill:rgb(100%,100%,100%);fill-opacity:1;stroke:none;"/>
<path style="fill:none;stroke-width:1.2;stroke-linecap:butt;stroke-linejoin:miter;stroke:rgb(0%,0%,0%);stroke-opacity:1;stroke-miterlimit:10;" d="M 181.960938 195.613281 L 155.03125 168.453125 "/>
<path style="fill:none;stroke-width:1.2;stroke-linecap:butt;stroke-linejoin:miter;stroke:rgb(0%,0%,0%);stroke-opacity:1;stroke-miterlimit:10;" d="M 185.65625 186.5625 L 164.113281 164.832031 "/>
<path style="fill:none;stroke-width:1.2;stroke-linecap:butt;stroke-linejoin:miter;stroke:rgb(0%,0%,0%);stroke-opacity:1;stroke-miterlimit:10;" d="M 218.949219 185.875 L 181.960938 195.613281 "/>
<path style="fill:none;stroke-width:1.2;stroke-linecap:butt;stroke-linejoin:miter;stroke:rgb(0%,0%,0%);stroke-opacity:1;stroke-miterlimit:10;" d="M 155.03125 168.453125 L 165.089844 131.546875 "/>
<path style="fill:none;stroke-width:1;stroke-linecap:butt;stroke-linejoin:miter;stroke:rgb(0%,0%,0%);stroke-opacity:1;stroke-miterlimit:10;" d="M 118.039062 178.191406 L 118.039062 178.191406 M 121.03125 177.945312 L 120.765625 176.9375 M 124.019531 177.695312 L 123.488281 175.679688 M 127.007812 177.449219 L 126.214844 174.421875 M 130 177.199219 L 128.9375 173.167969 M 132.988281 176.953125 L 131.660156 171.910156 M 135.980469 176.703125 L 134.386719 170.652344 M 138.96875 176.457031 L 137.109375 169.398438 M 141.957031 176.207031 L 139.832031 168.140625 M 144.949219 175.957031 L 142.558594 166.882812 M 147.9375 175.710938 L 145.28125 165.628906 M 150.925781 175.460938 L 148.007812 164.371094 M 153.917969 175.214844 L 150.730469 163.113281 M 156.75 174.980469 L 153.308594 161.925781 "/>
<path style="fill:none;stroke-width:1.2;stroke-linecap:butt;stroke-linejoin:miter;stroke:rgb(0%,0%,0%);stroke-opacity:1;stroke-miterlimit:10;" d="M 165.089844 131.546875 L 202.078125 121.808594 "/>
<path style="fill:none;stroke-width:1.2;stroke-linecap:butt;stroke-linejoin:miter;stroke:rgb(0%,0%,0%);stroke-opacity:1;stroke-miterlimit:10;" d="M 171.078125 139.277344 L 200.671875 131.484375 "/>
<path style="fill:none;stroke-width:1.2;stroke-linecap:butt;stroke-linejoin:miter;stroke:rgb(0%,0%,0%);stroke-opacity:1;stroke-miterlimit:10;" d="M 202.078125 121.808594 L 229.007812 148.972656 "/>
<path style="fill:none;stroke-width:1.2;stroke-linecap:butt;stroke-linejoin:miter;stroke:rgb(0%,0%,0%);stroke-opacity:1;stroke-miterlimit:10;" d="M 202.078125 121.808594 L 207.105469 103.355469 "/>
<path style="fill:none;stroke-width:1.2;stroke-linecap:butt;stroke-linejoin:miter;stroke:rgb(100%,0%,0%);stroke-opacity:1;stroke-miterlimit:10;" d="M 207.105469 103.355469 L 212.136719 84.902344 "/>
<path style="fill:none;stroke-width:1.2;stroke-linecap:butt;stroke-linejoin:miter;stroke:rgb(0%,0%,0%);stroke-opacity:1;stroke-miterlimit:10;" d="M 229.007812 148.972656 L 218.949219 185.875 "/>
<path style="fill:none;stroke-width:1.2;stroke-linecap:butt;stroke-linejoin:miter;stroke:rgb(0%,0%,0%);stroke-opacity:1;stroke-miterlimit:10;" d="M 219.316406 150.292969 L 211.269531 179.816406 "/>
<path style="fill:none;stroke-width:1.2;stroke-linecap:butt;stroke-linejoin:miter;stroke:rgb(0%,0%,0%);stroke-opacity:1;stroke-miterlimit:10;" d="M 218.949219 185.875 L 232.414062 199.457031 "/>
<path style="fill:none;stroke-width:1.2;stroke-linecap:butt;stroke-linejoin:miter;stroke:rgb(100%,0%,0%);stroke-opacity:1;stroke-miterlimit:10;" d="M 232.414062 199.457031 L 245.878906 213.039062 "/>
<path style=" stroke:none;fill-rule:nonzero;fill:rgb(100%,100%,100%);fill-opacity:1;" d="M 233.878906 203.539062 L 258.878906 203.539062 L 258.878906 222.539062 L 233.878906 222.539062 Z M 233.878906 203.539062 "/>
<g style="fill:rgb(100%,0%,0%);fill-opacity:1;">
  <use xlink:href="#glyph0-1" x="233.878906" y="218.390625"/>
  <use xlink:href="#glyph0-2" x="246.472656" y="218.390625"/>
</g>
<path style=" stroke:none;fill-rule:nonzero;fill:rgb(100%,100%,100%);fill-opacity:1;" d="M 200.136719 75.402344 L 225.136719 75.402344 L 225.136719 94.402344 L 200.136719 94.402344 Z M 200.136719 75.402344 "/>
<g style="fill:rgb(100%,0%,0%);fill-opacity:1;">
  <use xlink:href="#glyph0-1" x="200.136719" y="90.253906"/>
  <use xlink:href="#glyph0-2" x="212.730469" y="90.253906"/>
</g>
<path style="fill:none;stroke-width:1.2;stroke-linecap:butt;stroke-linejoin:miter;stroke:rgb(0%,0%,0%);stroke-opacity:1;stroke-miterlimit:10;" d="M 118.039062 178.191406 L 91.109375 151.027344 "/>
<path style="fill:none;stroke-width:1.2;stroke-linecap:butt;stroke-linejoin:miter;stroke:rgb(0%,0%,0%);stroke-opacity:1;stroke-miterlimit:10;" d="M 118.039062 178.191406 L 113.011719 196.644531 "/>
<path style="fill:none;stroke-width:1.2;stroke-linecap:butt;stroke-linejoin:miter;stroke:rgb(0%,0%,100%);stroke-opacity:1;stroke-miterlimit:10;" d="M 113.011719 196.644531 L 107.980469 215.097656 "/>
<path style="fill:none;stroke-width:1.2;stroke-linecap:butt;stroke-linejoin:miter;stroke:rgb(0%,0%,0%);stroke-opacity:1;stroke-miterlimit:10;" d="M 95.453125 152.210938 L 100.480469 133.761719 "/>
<path style="fill:none;stroke-width:1.2;stroke-linecap:butt;stroke-linejoin:miter;stroke:rgb(100%,0%,0%);stroke-opacity:1;stroke-miterlimit:10;" d="M 100.480469 133.761719 L 105.511719 115.308594 "/>
<path style="fill:none;stroke-width:1.2;stroke-linecap:butt;stroke-linejoin:miter;stroke:rgb(0%,0%,0%);stroke-opacity:1;stroke-miterlimit:10;" d="M 86.769531 149.847656 L 91.796875 131.394531 "/>
<path style="fill:none;stroke-width:1.2;stroke-linecap:butt;stroke-linejoin:miter;stroke:rgb(100%,0%,0%);stroke-opacity:1;stroke-miterlimit:10;" d="M 91.796875 131.394531 L 96.828125 112.941406 "/>
<path style="fill:none;stroke-width:1.2;stroke-linecap:butt;stroke-linejoin:miter;stroke:rgb(0%,0%,0%);stroke-opacity:1;stroke-miterlimit:10;" d="M 91.109375 151.027344 L 72.617188 155.898438 "/>
<path style="fill:none;stroke-width:1.2;stroke-linecap:butt;stroke-linejoin:miter;stroke:rgb(100%,0%,0%);stroke-opacity:1;stroke-miterlimit:10;" d="M 72.617188 155.898438 L 54.121094 160.769531 "/>
<path style=" stroke:none;fill-rule:nonzero;fill:rgb(100%,100%,100%);fill-opacity:1;" d="M 95.167969 104.625 L 108.167969 104.625 L 108.167969 123.625 L 95.167969 123.625 Z M 95.167969 104.625 "/>
<g style="fill:rgb(100%,0%,0%);fill-opacity:1;">
  <use xlink:href="#glyph0-1" x="95.167969" y="119.476562"/>
</g>
<path style=" stroke:none;fill-rule:nonzero;fill:rgb(100%,100%,100%);fill-opacity:1;" d="M 29.121094 151.269531 L 54.121094 151.269531 L 54.121094 170.269531 L 29.121094 170.269531 Z M 29.121094 151.269531 "/>
<g style="fill:rgb(100%,0%,0%);fill-opacity:1;">
  <use xlink:href="#glyph0-2" x="29.121094" y="166.121094"/>
  <use xlink:href="#glyph0-1" x="41.152344" y="166.121094"/>
</g>
<path style=" stroke:none;fill-rule:nonzero;fill:rgb(100%,100%,100%);fill-opacity:1;" d="M 91.980469 203.597656 L 124.980469 203.597656 L 124.980469 226.597656 L 91.980469 226.597656 Z M 91.980469 203.597656 "/>
<g style="fill:rgb(0%,0%,100%);fill-opacity:1;">
  <use xlink:href="#glyph0-2" x="91.980469" y="218.449219"/>
</g>
<g style="fill:rgb(0%,0%,100%);fill-opacity:1;">
  <use xlink:href="#glyph1-1" x="104.011719" y="223.332031"/>
</g>
<g style="fill:rgb(0%,0%,100%);fill-opacity:1;">
  <use xlink:href="#glyph0-3" x="112.491211" y="218.449219"/>
</g>
</g>
</svg>

<svg xmlns="http://www.w3.org/2000/svg" xmlns:xlink="http://www.w3.org/1999/xlink" width="300pt" height="300pt" viewBox="0 0 300 300"><defs><symbol overflow="visible"><path d="M.797 2.828v-14.11h8V2.83zm.906-.89h6.203v-12.33H1.703zm0 0"/></symbol><symbol overflow="visible" id="a"><path d="M6.313-10.594c-1.15 0-2.06.43-2.735 1.28-.68.857-1.015 2.017-1.015 3.486 0 1.47.335 2.633 1.015 3.484.676.856 1.586 1.28 2.735 1.28 1.144.002 2.05-.424 2.718-1.28.665-.85 1-2.015 1-3.484 0-1.47-.335-2.63-1-3.484-.667-.852-1.573-1.282-2.717-1.282zm0-1.28c1.632 0 2.94.546 3.92 1.64.978 1.093 1.47 2.562 1.47 4.406 0 1.844-.492 3.32-1.47 4.422-.98 1.093-2.288 1.64-3.92 1.64-1.65 0-2.96-.546-3.938-1.64-.98-1.102-1.47-2.578-1.47-4.422 0-1.844.49-3.313 1.47-4.406.977-1.094 2.29-1.64 3.938-1.64zm0 0"/></symbol><symbol overflow="visible" id="b"><path d="M1.578-11.672h1.578v4.78H8.89v-4.78h1.58V0H8.89v-5.563H3.157V0H1.578zm0 0"/></symbol><symbol overflow="visible" id="d"><path d="M1.578-11.672h2.125l5.172 9.766v-9.766h1.53V0H8.282L3.11-9.766V0H1.577zm0 0"/></symbol><symbol overflow="visible"><path d="M.64 2.297v-11.47h6.5v11.47zm.735-.72h5.047V-8.436H1.375zm0 0"/></symbol><symbol overflow="visible" id="c"><path d="M2.5-1.078h4.47V0H.952v-1.078c.488-.5 1.15-1.172 1.985-2.016C3.78-3.944 4.312-4.5 4.53-4.75c.407-.457.69-.848.845-1.172.164-.32.25-.633.25-.937 0-.507-.18-.92-.53-1.234-.345-.312-.806-.47-1.376-.47-.408.002-.837.072-1.283.205-.437.137-.914.352-1.42.64v-1.296c.518-.207 1.003-.363 1.452-.468.444-.114.85-.172 1.217-.172.99 0 1.774.25 2.36.75.582.492.875 1.148.875 1.97 0 .385-.074.756-.22 1.108-.147.344-.413.75-.796 1.22-.105.124-.445.483-1.015 1.077-.562.585-1.36 1.4-2.39 2.452zm0 0"/></symbol></defs><g><path fill="#fff" d="M0 0h300v300H0z"/><path d="M181.96 195.613l-26.93-27.16M185.656 186.563l-21.543-21.73M218.95 185.875l-36.99 9.738M155.03 168.453l10.06-36.906" stroke-width="1.2" stroke="#000" stroke-miterlimit="10" fill="none"/><path d="M118.04 178.19m2.99-.245l-.264-1.007m3.254.757l-.532-2.015m3.52 1.77l-.793-3.028M130 177.2l-1.063-4.032m4.05 3.785l-1.327-5.043m4.32 4.793l-1.593-6.05m4.582 5.804l-1.86-7.06m4.847 6.81l-2.125-8.066m5.117 7.817l-2.39-9.074m5.377 8.828l-2.656-10.08m5.646 9.83l-2.918-11.09m5.91 10.845l-3.188-12.102m6.02 11.867l-3.44-13.054" stroke="#000" stroke-miterlimit="10" fill="none"/><path d="M165.09 131.547l36.988-9.738M171.078 139.277l29.594-7.793M202.078 121.81l26.93 27.163M202.078 121.81l5.027-18.455" stroke-width="1.2" stroke="#000" stroke-miterlimit="10" fill="none"/><path d="M207.105 103.355l5.032-18.453" stroke-width="1.2" stroke="#f00" stroke-miterlimit="10" fill="none"/><path d="M229.008 148.973l-10.06 36.902M219.316 150.293l-8.046 29.523M218.95 185.875l13.464 13.582" stroke-width="1.2" stroke="#000" stroke-miterlimit="10" fill="none"/><path d="M232.414 199.457l13.465 13.582" stroke-width="1.2" stroke="#f00" stroke-miterlimit="10" fill="none"/><path d="M233.88 203.54h25v19h-25zm0 0" fill="#fff"/><g fill="#f00"><use xlink:href="#a" x="233.879" y="218.391"/><use xlink:href="#b" x="246.473" y="218.391"/></g><path d="M200.137 75.402h25v19h-25zm0 0" fill="#fff"/><g fill="#f00"><use xlink:href="#a" x="200.137" y="90.254"/><use xlink:href="#b" x="212.73" y="90.254"/></g><path d="M118.04 178.19l-26.93-27.163M118.04 178.19l-5.028 18.455" stroke-width="1.2" stroke="#000" stroke-miterlimit="10" fill="none"/><path d="M113.012 196.645l-5.032 18.453" stroke-width="1.2" stroke="#00f" stroke-miterlimit="10" fill="none"/><path d="M95.453 152.21l5.027-18.448" stroke-width="1.2" stroke="#000" stroke-miterlimit="10" fill="none"/><path d="M100.48 133.762l5.032-18.453" stroke-width="1.2" stroke="#f00" stroke-miterlimit="10" fill="none"/><path d="M86.77 149.848l5.027-18.453" stroke-width="1.2" stroke="#000" stroke-miterlimit="10" fill="none"/><path d="M91.797 131.395l5.03-18.454" stroke-width="1.2" stroke="#f00" stroke-miterlimit="10" fill="none"/><path d="M91.11 151.027l-18.493 4.87" stroke-width="1.2" stroke="#000" stroke-miterlimit="10" fill="none"/><path d="M72.617 155.898L54.12 160.77" stroke-width="1.2" stroke="#f00" stroke-miterlimit="10" fill="none"/><path d="M95.168 104.625h13v19h-13zm0 0" fill="#fff"/><use xlink:href="#a" x="95.168" y="119.477" fill="#f00"/><path d="M29.12 151.27h25v19h-25zm0 0" fill="#fff"/><g fill="#f00"><use xlink:href="#b" x="29.121" y="166.121"/><use xlink:href="#a" x="41.152" y="166.121"/></g><path d="M91.98 203.598h33v23h-33zm0 0" fill="#fff"/><use xlink:href="#b" x="91.98" y="218.449" fill="#00f"/><use xlink:href="#c" x="104.012" y="223.332" fill="#00f"/><use xlink:href="#d" x="112.491" y="218.449" fill="#00f"/></g></svg>
